X:1
T:Title
%%score { 1 | ( 2 3 4 ) }
L:1/8
Q:1/4=100
M:6/8
K:G
V:1 treble nm="Grand Piano"
V:2 bass 
V:3 bass 
V:4 bass 
V:1
 [DB]2 [DB] [CA]B[CA] | [B,G]2 [B,G] [B,D]3 | [B,E]3 [B,G]3 | [CF]6 | [Ac]2 [Ac] [FA]B[Ac] | %5
w: I.~H.~Meredith * * * *|||||
 [GB]2 [DA] [B,G]3 | [^CA]3 [CB]3 | [CA]6 | [DB]2 [DB] [CA]B[CA] | [B,G]2 [B,G] [B,D]3 | %10
w: |||||
 [B,G]3 [D=F]3 | [CE]6 | [Ec]2 [Ec] [^DG]A[DG] | [DB]2 [DB] [B,G]3 | [^CE]3 [=CF]3 | [B,G]6 | %16
w: ||||||
 [DB]3 [EB]3 | [FB]3 [GB]3 | [Bd]2 [_B^c] [=Bd]2 [_Bc] | [Bd]3 [Bd]e[Bd] | [Ac]2 [^GB] [Ac]2 [GB] | %21
w: |||||
 [Ac]3 [Ac]d[Ac] | [GB]2 [F_B] [G=B]2 [F_B] | [GB]6 | [DB]3 [EB]3 | [FB]3 [GB]3 | %26
w: |||||
 [Bd]2 [_B^c] [=Bd]2 [_Bc] | [Bd]3 [Bd]e[Bd] | [Ac]2 [^GB] [Ac]2 [ce] | [Bd]3 [Ac]3 | [GB]6- | %31
w: |||||
 [GB]3 .[GBg]3 |] %32
w: |
V:2
 z3 .F,3 | G,,2 D, G,2 D, | G,,2 D, G,2 D, | A,,2 D, A,2 D, | z3 .F,3 | G,,2 D, G,2 D, | %6
 A,,2 E, G,2 E, | D,F,D, D,C,A,, | z3 .F,3 | G,,2 D, G,2 D, | G,,2 D, G,2 B,, | C,2 E, G,2 E, | %12
 z3 .C3 | G,,2 D, G,2 D, | A,,2 E, D,2 A, | G,D,B,, .G,,3 | G,,2 D, G,2 D, | G,,2 D, G,2 D, | %18
 G,,2 D, G,2 D, | z3 .G,3[K:treble][K:bass] | D,,2 D, F,2 D, | z3 .F,3[K:treble][K:bass] | %22
 G,,2 D, G,2 D, | G,,E,D, C,B,,A,, | G,,2 D, G,2 D, | G,,2 D, G,2 D, | G,,2 D, G,2 D, | %27
 G,,2 F,, z[K:treble] c[K:bass]E, | A,,2 E, A,2 A,, | D,2 E, F,2 D, | G,2 E, D,2 B,, | %31
 G,,3 z/ B,3/2 z |] %32
V:3
 G,,2 D, z DD, | x6 | x6 | x6 | D,,2 D, z GD, | x6 | x6 | x6 | G,,2 D, z DD, | x6 | x6 | x6 | %12
 C,2 G, z ^DG, | x6 | x6 | x6 | x6 | x6 | x6 | G,,2 D, z[K:treble] c[K:bass]D, | x6 | %21
 F,,2 D, z[K:treble] B[K:bass]D, | x6 | x6 | x6 | x6 | x6 | z3 .E,,3[K:treble][K:bass] | x6 | x6 | %30
 x6 | z3 z/4 D,3/4-D, z |] %32
V:4
 x6 | x6 | x6 | x6 | x6 | x6 | x6 | x6 | x6 | x6 | x6 | x6 | x6 | x6 | x6 | x6 | x6 | x6 | x6 | %19
 x4[K:treble] x[K:bass] x | x6 | x4[K:treble] x[K:bass] x | x6 | x6 | x6 | x6 | x6 | %27
 x4[K:treble] x[K:bass] x | x6 | x6 | x6 | z3 .G,,3 |] %32

